assets/svg/networks/wallet_arbitrumone.svg

<svg width="36" height="36" viewBox="0 0 36 36" fill="none" xmlns="http://www.w3.org/2000/svg">
<g clip-path="url(#clip0_20004_22639)">
<rect width="36" height="36" rx="10" fill="#2D374B"/>
<path d="M20.9772 17.3193L22.9692 13.969L28.3381 22.2583L28.3406 23.849L28.3231 12.9023C28.3104 12.6348 28.1671 12.39 27.9384 12.2456L18.2723 6.73409C18.0462 6.62395 17.7594 6.62512 17.5337 6.73751C17.5033 6.7527 17.4745 6.76913 17.4472 6.78707L17.4135 6.8081L8.03096 12.1977L7.99452 12.2141C7.94772 12.2354 7.90041 12.2626 7.85597 12.2941C7.67811 12.4206 7.55993 12.6076 7.52172 12.8173C7.516 12.8491 7.51179 12.8815 7.50977 12.9141L7.5245 21.8346L12.5254 14.1512C13.1551 13.1323 14.5269 12.8041 15.8004 12.822L17.295 12.8611L8.48853 26.8608L9.52663 27.4533L18.4387 12.8753L22.3778 12.8611L13.4887 27.807L17.193 29.9189L17.6356 30.1712C17.8228 30.2467 18.0435 30.2504 18.2323 30.1829L28.0343 24.5522L26.1602 25.6286L20.9772 17.3193ZM21.7372 28.1694L17.9958 22.3487L20.2797 18.5071L25.1933 26.184L21.7372 28.1694Z" fill="#2D374B"/>
<path d="M17.9922 22.3494L21.7336 28.1702L25.1897 26.1848L20.2761 18.5078L17.9922 22.3494Z" fill="#28A0F0"/>
<path d="M28.338 23.8488L28.3355 22.2581L22.9666 13.9688L20.9746 17.3191L26.1576 25.6283L28.0316 24.5519C28.2155 24.404 28.3267 24.1868 28.3384 23.9524L28.338 23.8488Z" fill="#28A0F0"/>
<path d="M5.84188 25.3482L8.48827 26.8598L17.2948 12.8601L15.8001 12.821C14.5266 12.8031 13.1549 13.1313 12.5252 14.1502L7.52424 21.8336L5.8418 24.3961V25.3482H5.84188Z" fill="white"/>
<path d="M22.3784 12.8613L18.4394 12.8755L9.52734 27.4535L12.6423 29.2314L13.4894 27.8072L22.3784 12.8613Z" fill="white"/>
<path d="M30.0004 12.8407C29.9674 12.0241 29.5214 11.2765 28.8227 10.8413L19.0299 5.25895C18.3387 4.91393 17.4753 4.91352 16.7831 5.2587C16.7012 5.29958 7.25969 10.7275 7.25969 10.7275C7.12905 10.7896 7.00321 10.8636 6.88478 10.9475C6.26106 11.3907 5.88085 12.0792 5.8418 12.8357V24.3968L7.52424 21.8344L7.50951 12.9139C7.51153 12.8813 7.51565 12.8492 7.52146 12.8175C7.55942 12.6076 7.67769 12.4204 7.85571 12.2939C7.90015 12.2623 17.5029 6.75247 17.5335 6.73729C17.7592 6.6249 18.046 6.62373 18.272 6.73387L27.9381 12.2454C28.1668 12.3897 28.3102 12.6345 28.3229 12.9021V23.9524C28.3112 24.1868 28.2178 24.4039 28.0339 24.5519L26.1599 25.6284L25.193 26.1838L21.7369 28.1692L18.2319 30.1827C18.0431 30.2503 17.8224 30.2465 17.6352 30.171L13.4884 27.8067L12.6413 29.2308L16.3679 31.3577C16.4912 31.4272 16.601 31.4887 16.6911 31.539C16.8306 31.6166 16.9257 31.6684 16.9592 31.6845C17.2241 31.812 17.6052 31.8862 17.9486 31.8862C18.2635 31.8862 18.5705 31.8289 18.861 31.7161L29.0413 25.8719C29.6256 25.4232 29.9694 24.7464 30.0004 24.0133V12.8407Z" fill="#96BEDC"/>
</g>
<defs>
<clipPath id="clip0_20004_22639">
<rect width="36" height="36" fill="white"/>
</clipPath>
</defs>
</svg>

<svg xmlns="http://www.w3.org/2000/svg" width="36" height="36" fill="none"><g clip-path="url(#a)"><rect width="36" height="36" fill="#2D374B" rx="10"/><path fill="#2D374B" d="m20.977 17.32 1.992-3.351 5.37 8.29.002 1.59-.018-10.947a.82.82 0 0 0-.385-.656l-9.666-5.512a.86.86 0 0 0-.825.053l-.034.021-9.382 5.39-.036.016a.821.821 0 0 0-.485.7l.014 8.92 5.001-7.683c.63-1.019 2.002-1.347 3.275-1.329l1.495.04L8.489 26.86l1.038.592 8.912-14.578 3.939-.014-8.89 14.946 3.705 2.112.443.252c.187.076.408.08.596.012l9.802-5.63-1.874 1.076zm.76 10.85-3.741-5.821 2.284-3.842 4.913 7.677z"/><path fill="#28A0F0" d="m17.992 22.35 3.742 5.82 3.456-1.985-4.914-7.677zM28.338 23.849l-.003-1.59-5.368-8.29-1.992 3.35 5.183 8.31 1.874-1.077a.82.82 0 0 0 .306-.6z"/><path fill="#fff" d="m5.842 25.348 2.646 1.512 8.807-14-1.495-.039c-1.273-.018-2.645.31-3.275 1.33l-5 7.683-1.683 2.562zM22.378 12.861l-3.939.014-8.912 14.578 3.115 1.778.847-1.424z"/><path fill="#96BEDC" d="M30 12.84a2.48 2.48 0 0 0-1.177-1.999L19.03 5.26a2.57 2.57 0 0 0-2.247 0c-.082.04-9.523 5.468-9.523 5.468q-.197.095-.375.22a2.46 2.46 0 0 0-1.043 1.889v11.56l1.682-2.562-.014-8.92a.82.82 0 0 1 .346-.62c.044-.032 9.647-5.542 9.678-5.557a.86.86 0 0 1 .738-.003l9.666 5.511c.229.145.372.39.385.657v11.05a.8.8 0 0 1-.29.6l-1.873 1.076-.967.556-3.456 1.985-3.505 2.014a.86.86 0 0 1-.597-.012l-4.147-2.364-.847 1.424 3.727 2.127.323.181c.14.078.235.13.268.145.265.128.646.202.99.202.314 0 .621-.057.912-.17l10.18-5.844a2.46 2.46 0 0 0 .96-1.859z"/></g><defs><clipPath id="a"><path fill="#fff" d="M0 0h36v36H0z"/></clipPath></defs></svg>
